modules/stroke-7/icons/diskette.svg

<?xml version="1.0" encoding="utf-8"?>
<!-- Generated by IcoMoon.io -->
<!DOCTYPE svg PUBLIC "-//W3C//DTD SVG 1.1//EN" "http://www.w3.org/Graphics/SVG/1.1/DTD/svg11.dtd">
<svg version="1.1" xmlns="http://www.w3.org/2000/svg" xmlns:xlink="http://www.w3.org/1999/xlink" width="32" height="32" viewBox="0 0 32 32">
<g id="icomoon-ignore">
</g>
<path d="M23.464 3.205h-20.259v25.59h25.59v-20.259l-5.331-5.331zM21.331 4.271v7.464h-10.662v-7.464h10.662zM27.729 27.729h-23.457v-23.457h5.331v8.53h12.795v-8.53h0.625l4.706 4.707v18.751z" fill="#000000"></path>
<path d="M18.153 6.404h1.066v3.199h-1.066v-3.199z" fill="#000000"></path>
<path d="M10.669 20.265h10.662v1.066h-10.662v-1.066z" fill="#000000"></path>
<path d="M10.669 23.464h10.662v1.066h-10.662v-1.066z" fill="#000000"></path>
</svg>

<svg xmlns="http://www.w3.org/2000/svg" width="32" height="32" viewBox="0 0 32 32"><path d="M23.464 3.205H3.205v25.59h25.59V8.536l-5.331-5.331zm-2.133 1.066v7.464H10.669V4.271h10.662zm6.398 23.458H4.272V4.272h5.331v8.53h12.795v-8.53h.625l4.706 4.707V27.73z"/><path d="M18.153 6.404h1.066v3.199h-1.066V6.404zM10.669 20.265h10.662v1.066H10.669v-1.066zM10.669 23.464h10.662v1.066H10.669v-1.066z"/></svg>
